X:9717
T:Lloraba una Cabraliega (Arrg.)
C:Tradicional
S:Música Tradicional Asturiana, (C) Tello & Tito. Asturies, 2001.
S:http://pagina.de/MusTradAst <telloytito@asturies.org>
A:Asturies
G:Arrg.
Z:Curdión
M:3/4
L:1/4
Q:1/4=120
W:Cuando salí de Cabrales (bis)
W:lloraba una cabraliega.
W:Ella lloraba por mí (bis)
W:y yo lloraba por ella.
W:
W:Nun llores neña, nun llores, (bis)
W:nun llores nin tengas pena,
W:qu'en cumpliendo los tres años (bis)
W:caso contigo, neña.
K:C
E|:"C"G2 E|"G"G G G|"F"A3/2 G/ F-|"F"F2 E|
"C"G2 E|"G"G G G|"F"A3/2 G/ F-|
|"G7"F E D|"C"C2 C|"C"E E G|"F"F3|
"G7"D2 D|"C"C3-|[1 "C"C z E:|[2 "C"C ||


